!!!!SEGMENT: pl-wnifc--13846--135_anonim--piesni-polskie-i-ruskie-ludu-galicyjskiego-135-posijalam-rutu.krn
!!!kernsource:
!!!cenid: 18xx:3357
!!!COM: Anonim
!!!COM-rismID: pe30004985
!!!CDT:
!!!CNT:
!!!GTL: Pieśni polskie i ruskie ludu galicyjskiego
!!!OTL: 135. Posijałam rutu
!!!PDT: 1833
!!!AGN:
!!!SMS-siglum: PL-Wnifc
!!!SMS-shelfmark: 13846
!!!SMS-shelfwork: 135 G
!!!SMS-variant:
!!!SMS-altvar:
!!!NIFC-rismSourceID: 1001036701
!!!NIFC-rismChildID: 1001039642
!!!NIFC-islandoraID: nifc:210326
!!!URL-pdf-islandora: https://repozytorium.nifc.pl/islandora/object/nifc%3A210326/datastream/PDF/view
!!!URL-scan:
!!!ONB-nifc:
!!!OMD: Kołomyika
!!!AIN: 1 piano 1 vox
!!!key: d
**kern	**kern	**kern	**text
*part2	*part2	*part1	*part1
*staff3	*staff2	*staff1	*staff1
*I"Fortepian	*I"Fortepian	*I"Głos	*
*Ipiano	*Ipiano	*Ivox	*
*ICklav	*ICklav	*ICvox	*
*IGacmp	*IGacmp	*IGsolo	*
*clefF4	*clefG2	*clefG2	*
*k[b-]	*k[b-]	*k[b-]	*
*d:	*d:	*d:	*
*M2/4	*M2/4	*M2/4	*
=1	=1	=1	=1
*tremolo	*	*	*
!LO:TX:b:t=....	!	!LO:TX:a:t=E.228.	!
.	8qd/	.	.
!LO:TX:a:t=<.<.	!	!	!
8DD^>/L 8BB-/ 8D/	8dd\	8dd\	Po-
8DD'>/ 8BB-/ 8D/	(16gg\LL	(16gg\LL	-si-
.	16ff#X\JJ)	16ff#X\JJ)	.
8DD^>/ 8BB-/ 8D/	8gg|>\L	8gg|>\L	-ja-
8DD'>/J 8BB-/ 8D/	8dd|>\J	8dd|>\J	-łam
=2	=2	=2	=2
.	8qd/	.	.
!LO:TX:b:t=....	!	!	!
!LO:TX:a:t=<.<.	!	!	!
8DD/^>L 8AA/ 8D/	8dd\	8dd\	ru-
8DD/'> 8AA/ 8D/	(16ffn\LL	(16ffn\LL	-tu
.	16ee\JJ)	16ee\JJ)	.
8DD/^> 8AA/ 8D/	8ff\L	8ff\	kru-
8DD/'>J 8AA/ 8D/	8dd\J	8dd\	-tu
!!LO:LB:g=original
=3	=3	=3	=3
.	8qd/	.	.
!LO:TX:b:t=....	!	!	!
!LO:TX:a:t=<.<.	!	!	!
8DD/^>L 8BB-/ 8D/	8dd\	8dd\	me-
8DD/'> 8BB-/ 8D/	(16gg\LL	(16gg\LL	-ży
.	16ff#X\JJ)	16ff#X\JJ)	.
8DD/^> 8BB-/ 8D/	8gg\L	8gg\	be-
8DD/'J 8BB-/ 8D/	8dd\J	8dd\	-re-
*Xtremolo	*	*	*
=4	=4	=4	=4
4DD/^ 4AA/ 4D/	(8.ffn\L	(8.ffn\L	-ha-
.	32ee\LL	32ee\LL	.
.	32dd\JJJ)	32dd\JJJ)	.
4DD/^ 4AA/ 4D/	4dd\	4dd\	-my;
!!LO:LB:g=original
=5	=5	=5	=5
*tremolo	*	*	*
.	(>8qd/	.	.
!LO:TX:b:t=....	!	!	!
8DD/L 8BB-X/ 8D/	8dd\)	8dd\	oj
8DD/ 8BB-/ 8D/	(16gg\LL	(16gg\LL	jak
.	16ff#X\JJ)	16ff#X\JJ)	.
8DD/ 8BB-/ 8D/	8gg\L	8gg\	tia-
8DD/J 8BB-/ 8D/	8dd\J	8dd\	-zko
=6	=6	=6	=6
!LO:TX:b:t=....	!	!	!
8DD/L 8AA/ 8D/	8dd\	8dd\	me-
8DD/ 8AA/ 8D/	(16ffn\LL	(16ffn\LL	-ni
.	16ee\JJ)	16ee\JJ)	.
8DD/ 8AA/ 8D/	8ff\L	8ff\	ży-
8DD/J 8AA/ 8D/	8dd\J	8dd\	-ty
*Xtremolo	*	*	*
!!LO:LB:g=original
=7	=7	=7	=7
8AAA/L	8f|>\L 8dd\	8dd\	me-
8AA/	8ff|>\J	8ff\	-ży
8AAA/	(16ee\LL	(16ee\LL	wo-
.	16dd\JJ)	16dd\JJ)	.
8AA/J	(16g\LL 16ee\	(16ee\LL	-ro-
.	16cc#X\JJ)	16cc#X\JJ)	.
=8	=8	=8	=8
4DD/ 4AA/	4f\ 4dd\	4dd\	-ha-
4DD/ 4AA/	8f\ 8dd\	8dd\	-my!
.	8r	8r	.
!!LO:PB:g=original
==	==	==	==
*-	*-	*-	*-
!!!system-decoration: s1,{(s2,s3)}
!!!RDF**kern: < = below
!!!RDF**kern: > = above
!!!RDF**kern: | = vertical stroke
!!!ENC: Marta Chmielewska
!!!END: 2021-11-11
!!!YEC: Copyright 2022 Narodowy Instytut Fryderyka Chopina (https://polishscores.org)
!!!YEM: License CC-BY-4.0 (https://creativecommons.org/licenses/by/4.0)
